icon-themes/breeze_svg/cmd/sc_circlepie_unfilled.svg

<svg viewBox="0 0 16 16" xmlns="http://www.w3.org/2000/svg">/&gt;<path d="m8 2c-3.3137072 0-6 2.6862997-6 6 0 3.3137 2.6862928 6 6 6 3.313707 0 6-2.6863 6-6v-1h-5v-5zm0 1v4 1h1 4c0 2.761424-2.238576 5-5 5-2.7614237 0-5-2.238576-5-5 0-2.7614237 2.2385763-5 5-5z" fill="#4d4d4d"/></svg>

<svg xmlns="http://www.w3.org/2000/svg" viewBox="0 0 16 16">
     />
 <path 
     style="fill:#4d4d4d" 
     d="M 8 2 C 4.6862928 2 2 4.6862997 2 8 C 2 11.3137 4.6862928 14 8 14 C 11.313707 14 14 11.3137 14 8 L 14 7 L 9 7 L 9 2 L 8 2 z M 8 3 L 8 7 L 8 8 L 9 8 L 13 8 C 13 10.761424 10.761424 13 8 13 C 5.2385763 13 3 10.761424 3 8 C 3 5.2385763 5.2385763 3 8 3 z "
     />
 </svg>
